src/Assets/Icons/User/gift.svg

<svg width="22" height="24" viewBox="0 0 22 24" fill="none" xmlns="http://www.w3.org/2000/svg">
<path d="M17.9954 6.00465H17.5755C17.8493 5.44411 17.9928 4.82894 17.9954 4.20511C17.999 3.36932 17.7524 2.55157 17.2873 1.85711C16.8222 1.16266 16.16 0.623297 15.3857 0.308444C14.6115 -0.00640911 13.7608 -0.0823387 12.943 0.0904288C12.1253 0.263196 11.3779 0.676753 10.7972 1.27787C10.2165 0.676753 9.46917 0.263196 8.65143 0.0904288C7.83368 -0.0823387 6.98293 -0.00640911 6.2087 0.308444C5.43447 0.623297 4.7722 1.16266 4.30712 1.85711C3.84204 2.55157 3.59544 3.36932 3.59907 4.20511C3.60163 4.82894 3.74517 5.44411 4.01896 6.00465H3.59907C2.64454 6.00465 1.7291 6.38383 1.05414 7.05879C0.379187 7.73375 0 8.64918 0 9.60372V12.0031C0 12.3213 0.126396 12.6264 0.351381 12.8514C0.576367 13.0764 0.881513 13.2028 1.19969 13.2028H2.39938V20.4009C2.39938 21.3555 2.77857 22.2709 3.45352 22.9459C4.12848 23.6208 5.04392 24 5.99845 24H15.596C16.5505 24 17.4659 23.6208 18.1409 22.9459C18.8159 22.2709 19.195 21.3555 19.195 20.4009V13.2028H20.3947C20.7129 13.2028 21.0181 13.0764 21.243 12.8514C21.468 12.6264 21.5944 12.3213 21.5944 12.0031V9.60372C21.5944 8.64918 21.2152 7.73375 20.5403 7.05879C19.8653 6.38383 18.9499 6.00465 17.9954 6.00465ZM9.59752 21.6006H5.99845C5.68027 21.6006 5.37513 21.4742 5.15014 21.2492C4.92516 21.0243 4.79876 20.7191 4.79876 20.4009V13.2028H9.59752V21.6006ZM9.59752 10.8034H2.39938V9.60372C2.39938 9.28554 2.52578 8.98039 2.75076 8.75541C2.97575 8.53042 3.28089 8.40403 3.59907 8.40403H9.59752V10.8034ZM9.59752 6.00465H7.79799C7.44207 6.00465 7.09415 5.89911 6.79822 5.70137C6.50229 5.50363 6.27164 5.22259 6.13543 4.89376C5.99923 4.56494 5.96359 4.20312 6.03303 3.85404C6.10246 3.50496 6.27385 3.18432 6.52552 2.93265C6.77719 2.68098 7.09784 2.50959 7.44691 2.44015C7.79599 2.37072 8.15782 2.40635 8.48664 2.54256C8.81546 2.67876 9.09651 2.90941 9.29425 3.20534C9.49198 3.50128 9.59752 3.8492 9.59752 4.20511V6.00465ZM11.9969 4.20511C11.9969 3.8492 12.1024 3.50128 12.3002 3.20534C12.4979 2.90941 12.779 2.67876 13.1078 2.54256C13.4366 2.40635 13.7984 2.37072 14.1475 2.44015C14.4966 2.50959 14.8172 2.68098 15.0689 2.93265C15.3206 3.18432 15.492 3.50496 15.5614 3.85404C15.6308 4.20312 15.5952 4.56494 15.459 4.89376C15.3228 5.22259 15.0921 5.50363 14.7962 5.70137C14.5003 5.89911 14.1524 6.00465 13.7964 6.00465H11.9969V4.20511ZM16.7957 20.4009C16.7957 20.7191 16.6693 21.0243 16.4443 21.2492C16.2193 21.4742 15.9142 21.6006 15.596 21.6006H11.9969V13.2028H16.7957V20.4009ZM19.195 10.8034H11.9969V8.40403H17.9954C18.3135 8.40403 18.6187 8.53042 18.8437 8.75541C19.0687 8.98039 19.195 9.28554 19.195 9.60372V10.8034Z" fill="#675EF5"/>
</svg>

<svg xmlns="http://www.w3.org/2000/svg" width="22" height="24" fill="none"><path fill="#675EF5" d="M18 6h-.42a4.14 4.14 0 0 0-.3-4.14 4.19 4.19 0 0 0-6.48-.58A4.19 4.19 0 0 0 4.02 6H3.6A3.6 3.6 0 0 0 0 9.6V12a1.2 1.2 0 0 0 1.2 1.2h1.2v7.2A3.6 3.6 0 0 0 6 24h9.6a3.6 3.6 0 0 0 3.6-3.6v-7.2h1.2a1.2 1.2 0 0 0 1.2-1.2V9.6A3.6 3.6 0 0 0 18 6ZM9.6 21.6H6a1.2 1.2 0 0 1-1.2-1.2v-7.2h4.8v8.4Zm0-10.8H2.4V9.6a1.2 1.2 0 0 1 1.2-1.2h6v2.4Zm0-4.8H7.8a1.8 1.8 0 1 1 1.8-1.8V6ZM12 4.2A1.8 1.8 0 1 1 13.8 6H12V4.2Zm4.8 16.2a1.2 1.2 0 0 1-1.2 1.2H12v-8.4h4.8v7.2Zm2.4-9.6H12V8.4h6a1.2 1.2 0 0 1 1.2 1.2v1.2Z"/></svg>
